X:502
T:Si Beag Si Mhor
T:Sheebeg Sheemore
C:Turloch O'Carolan
S:My Interpretation
Z:Nigel Gatherer
R:air
M:3/4
L:1/8
K:D
de | {e}f-f {fg}fe d2 | d3  {ea}e d2 | B4 {cB}A-A | F4 A2 | {c}BA Bc d2 | {d}e-e3 {ae}de |
     {e}f-f3    e2 | d4    f2 | B4 e2 | A4 d2 | F4    (3EFE | D4 {e}f-f    |
     B4    e2 | A4    dc | d6    | {a}d4   ||
de | {e}f-f {fg}fe d2 | ed ef a2 | {a}b-b3 a2 | f4 ed | e4    a2    | f4 (3efe |
     d4    B2 | B4    BA | F4 E2 | D4 {e}f-f | B4    e2    | A4 a2    |
     {a}ba gf ed | e4  {ae}dc | d6    | {a}d4   ||
<end>
<start>
